icon-svg/panel-glass-door-4-locked.svg

<svg xmlns="http://www.w3.org/2000/svg" fill="#44739e" viewBox="0 0 24 24"><path d="M15.451 19.005h2.616v-3.826h-2.616zm.1-3.7h2.391v3.524h-2.389Zm-.117-2.072h2.616V9.408h-2.614zm.1-3.7h2.391v3.524h-2.387Zm-4.772-7.09v19.165H2v.743h20V2l-11.234.029Zm4.5 16.768.009-4.24 2.973.015-.003 4.214zm.023-15.461h2.949v4.139h-2.963Zm-.014 5.45h2.987l-.009 4.244-2.991.015zm.175-1.461h2.616V3.907h-2.616zm.1-3.69h2.391v3.52h-2.389zm-8.914 13.89a3.916 3.916 0 1 0-3.945-3.916 3.927 3.927 0 0 0 3.945 3.916m0-5.369a.866.866 0 0 1 .376 1.652v1.332h-.75v-1.332a.866.866 0 0 1 .374-1.652M4.816 9.727v-.921a1.817 1.817 0 0 1 3.633 0v.921l.012.005a4.6 4.6 0 0 1 .739.391V8.806a2.568 2.568 0 0 0-5.135 0v1.316a4.6 4.6 0 0 1 .735-.391Z"/></svg>

<?xml version="1.0" encoding="UTF-8"?>
<svg width="24px" fill="#44739e" height="24px" viewBox="0 0 24 24" version="1.1" xmlns="http://www.w3.org/2000/svg" xmlns:xlink="http://www.w3.org/1999/xlink">
            <path d="m 15.451,19.005 h 2.616 v -3.826 h -2.616 z m 0.1,-3.7 h 2.391 v 3.524 H 15.553 Z M 15.434,13.233 H 18.05 V 9.408 h -2.614 z m 0.1,-3.7 h 2.391 v 3.524 H 15.538 Z M 10.762,2.443 V 21.608 H 2 v 0.743 H 22 V 2 L 10.766,2.029 Z m 4.5,16.768 0.009,-4.24 2.973,0.015 -0.003,4.214 z M 15.285,3.75 h 2.949 V 7.889 H 15.271 Z M 15.271,9.2 h 2.987 l -0.009,4.244 -2.991,0.015 z m 0.175,-1.461 h 2.616 V 3.907 h -2.616 z m 0.1,-3.69 h 2.391 v 3.52 h -2.389 z m -8.914,13.89 a 3.916,3.916 0 1 0 -3.945,-3.916 3.927,3.927 0 0 0 3.945,3.916 z m 0,-5.369 a 0.866,0.866 0 0 1 0.376,1.652 v 1.332 H 6.258 V 14.222 A 0.866,0.866 0 0 1 6.632,12.57 Z M 4.816,9.727 V 8.806 a 1.817,1.817 0 0 1 3.633,0 V 9.727 L 8.461,9.732 A 4.583,4.583 0 0 1 9.2,10.123 V 8.806 a 2.568,2.568 0 0 0 -5.135,0 v 1.316 A 4.583,4.583 0 0 1 4.8,9.731 Z"/>

</svg>
